Newaita-dark/apps/64/bibletime.svg

<svg height="64" viewBox="0 0 64 64" width="64" xmlns="http://www.w3.org/2000/svg" xmlns:xlink="http://www.w3.org/1999/xlink"><linearGradient id="a" gradientUnits="userSpaceOnUse" x1="31.75304" x2="31.75304" y1="56.067872" y2="58.71396000006"><stop offset="0" stop-opacity=".27451"/><stop offset="1" stop-opacity="0"/></linearGradient><linearGradient id="b"><stop offset="0" stop-opacity=".313726"/><stop offset=".222222" stop-opacity=".27451"/><stop offset="1" stop-opacity="0"/></linearGradient><radialGradient id="c" cx="450.908936" cy="189.579361" gradientTransform="matrix(.00000035 -.156265 -.281277 -.0000002 100.292171 127.190665)" gradientUnits="userSpaceOnUse" r="21.166656" xlink:href="#b"/><radialGradient id="d" cx="450.908936" cy="189.579361" gradientTransform="matrix(-.00000035 .156265 .281277 .0000002 -36.786098 -15.054961)" gradientUnits="userSpaceOnUse" r="21.166656" xlink:href="#b"/><radialGradient id="e" cx="450.908936" cy="189.579361" gradientTransform="matrix(-.00000035 -.156265 .281277 -.0000002 -36.786098 127.190665)" gradientUnits="userSpaceOnUse" r="21.166656" xlink:href="#b"/><radialGradient id="f" cx="450.908936" cy="189.579361" gradientTransform="matrix(.00000035 .156265 -.281277 .0000002 100.292167 -15.054959)" gradientUnits="userSpaceOnUse" r="21.166656" xlink:href="#b"/><linearGradient id="g"><stop offset="0" stop-color="#424242"/><stop offset="1" stop-color="#757575"/></linearGradient><linearGradient id="h" gradientTransform="matrix(.150699 0 0 .434824 -11.708026 67.282696)" gradientUnits="userSpaceOnUse" x1="306.916656" x2="305.954559" xlink:href="#g" y1="-25.791676" y2="-141.414581"/><linearGradient id="i" gradientTransform="matrix(4.556143 0 0 13.146184 -353.972656 2034.180176)" gradientUnits="userSpaceOnUse" x1="165.484848" x2="165.484848" xlink:href="#g" y1="-25.791672" y2="-141.414581"/><linearGradient id="j"><stop offset="0" stop-color="#ffa726"/><stop offset="1" stop-color="#ffb74d"/></linearGradient><linearGradient id="k" gradientUnits="userSpaceOnUse" x1="34.399144" x2="34.399144" xlink:href="#j" y1="56.06789790428" y2="5.79222438278"/><linearGradient id="l" gradientUnits="userSpaceOnUse" x1="275.166314" x2="275.166314" xlink:href="#j" y1="233.49969318561" y2="-168.66647475188"/><linearGradient id="m" gradientUnits="userSpaceOnUse" x1="13.23043700013" x2="13.23043700013" xlink:href="#g" y1="21.007244375" y2="18.36115725002"/><linearGradient id="n" gradientUnits="userSpaceOnUse" x1="13.23043700013" x2="13.23043700013" xlink:href="#g" y1="42.837456375" y2="40.19136925002"/><path d="m15.875 56.066406h31.753906v2.648438h-31.753906zm0 0" fill="url(#a)"/><path d="m47.628906 56.066406h5.292969v-2.644531h-5.292969zm0 0" fill="url(#c)"/><path d="m15.875 56.066406h-5.289062v2.648438h5.289062zm0 0" fill="url(#d)"/><path d="m15.875 56.066406h-5.289062v-2.644531h5.289062zm0 0" fill="url(#e)"/><path d="m47.628906 56.066406h5.292969v2.648438h-5.292969zm0 0" fill="url(#f)"/><path d="m13.230469 5.792969h37.046875c1.460937 0 2.644531 1.183593 2.644531 2.644531v44.984375c0 1.460937-1.183594 2.644531-2.644531 2.644531h-37.046875c-1.460938 0-2.644531-1.183594-2.644531-2.644531v-44.984375c0-1.460938 1.183593-2.644531 2.644531-2.644531zm0 0" fill="url(#h)"/><path d="m400.001193 175.140764c-44.287112 0-79.952999 35.665888-79.952999 79.952999v1360.027676c0 44.287112 35.665887 79.952999 79.952999 79.952999h119.988548v-1519.933674zm0 0" fill="url(#i)" stroke="#212121" stroke-linecap="round" stroke-width="11.338583" transform="scale(.0330761)"/><path d="m13.230469 55.917969c-1.464844 0-2.644531-1.179688-2.644531-2.644531v-.332032c0 1.464844 1.179687 2.644532 2.644531 2.644532h37.046875c1.464844 0 2.644531-1.179688 2.644531-2.644532v.332032c0 1.464843-1.179687 2.644531-2.644531 2.644531zm0 0" fill-opacity=".196078"/><path d="m13.230469 5.941406c-1.464844 0-2.644531 1.179688-2.644531 2.644532v.332031c0-1.464844 1.179687-2.648438 2.644531-2.644531h37.046875c1.464844-.003907 2.644531 1.179687 2.644531 2.644531v-.332031c0-1.464844-1.179687-2.644532-2.644531-2.644532zm0 0" fill="#fff" fill-opacity=".392157"/><path d="m13.230469 5.605469c-1.566407 0-2.832031 1.265625-2.832031 2.832031v44.984375c0 1.566406 1.265624 2.832031 2.832031 2.832031h37.046875c1.566406 0 2.832031-1.265625 2.832031-2.832031v-44.984375c0-1.566406-1.265625-2.832031-2.832031-2.832031zm0 .375h37.046875c1.363281 0 2.457031 1.09375 2.457031 2.457031v44.984375c0 1.367187-1.09375 2.457031-2.457031 2.457031h-37.046875c-1.367188 0-2.457031-1.089844-2.457031-2.457031v-44.984375c0-1.363281 1.089843-2.457031 2.457031-2.457031zm0 0" fill="#212121"/><path d="m34.398438 12.40625c-.730469 0-1.324219.589844-1.324219 1.324219v7.9375h-7.9375c-.730469 0-1.320313.589843-1.320313 1.324219v1.324218c0 .730469.589844 1.320313 1.320313 1.320313h7.9375v15.878906c0 .730469.59375 1.320313 1.324219 1.320313h1.324218c.734375 0 1.324219-.589844 1.324219-1.320313v-15.878906h7.9375c.730469 0 1.320313-.589844 1.320313-1.320313v-1.324218c0-.734376-.589844-1.324219-1.320313-1.324219h-7.9375v-7.9375c0-.734375-.589844-1.324219-1.324219-1.324219zm0 0" fill="url(#k)"/><path d="m34.398438 12.40625c-.730469 0-1.324219.589844-1.324219 1.324219v.660156c0-.730469.59375-1.320313 1.324219-1.320313h1.324218c.734375 0 1.324219.589844 1.324219 1.320313v-.660156c0-.734375-.589844-1.324219-1.324219-1.324219zm-9.261719 9.261719c-.730469 0-1.320313.589843-1.320313 1.324219v.660156c0-.730469.589844-1.320313 1.320313-1.320313h7.9375v-.664062zm11.910156 0v.664062h7.9375c.730469 0 1.320313.589844 1.320313 1.320313v-.660156c0-.734376-.589844-1.324219-1.320313-1.324219zm0 0" fill="#fff" fill-opacity=".392157"/><path d="m23.816406 24.316406v.660156c0 .734376.589844 1.324219 1.320313 1.324219h7.9375v-.664062h-7.9375c-.730469 0-1.320313-.589844-1.320313-1.320313zm22.488282 0c0 .730469-.589844 1.320313-1.320313 1.320313h-7.9375v.664062h7.9375c.730469 0 1.320313-.589843 1.320313-1.324219zm-13.230469 17.199219v.660156c0 .734375.59375 1.324219 1.324219 1.324219h1.324218c.734375 0 1.324219-.589844 1.324219-1.324219v-.660156c0 .730469-.589844 1.320313-1.324219 1.320313h-1.324218c-.730469 0-1.324219-.589844-1.324219-1.320313zm0 0" fill-opacity=".235294"/><path d="m1039.979482 375.082311c-22.084507 0-40.035549 17.832944-40.035549 40.035549v239.977096h-239.977096c-22.084507 0-39.91745 17.832944-39.91745 40.035549v40.035549c0 22.084507 17.832943 39.91745 39.91745 39.91745h239.977096v480.072291c0 22.084507 17.951042 39.91745 40.035549 39.91745h40.035549c22.202605 0 40.035549-17.832943 40.035549-39.91745v-480.072291h239.977096c22.084506 0 39.91745-17.832943 39.91745-39.91745v-40.035549c0-22.202605-17.832944-40.035549-39.91745-40.035549h-239.977096v-239.977096c0-22.202605-17.832944-40.035549-40.035549-40.035549zm0 0" fill="none" stroke="#212121" stroke-linecap="round" stroke-linejoin="round" stroke-width="11.338583" transform="scale(.0330761)"/><path d="m148.17335-147.506445v359.840637h243.414255c5.874439 0 10.592739-4.7183 10.592739-10.592739v-338.65516c0-5.874439-4.7183-10.592738-10.592739-10.592738zm0 0" style="fill:none;stroke-width:8;stroke-linecap:round;stroke-linejoin:round;stroke-dasharray:16.000002 16.000002;stroke-dashoffset:7.200001;stroke:url(#l)" transform="matrix(.125012 0 0 .125012 0 26.877566)"/><path d="m10.585938 18.359375h6.613281v2.648437h-6.613281zm0 0" fill="url(#m)"/><path d="m10.585938 21.007812v.992188h6.613281v-.992188zm0 0" fill-opacity=".235294"/><path d="m10.585938 18.359375v.664063h6.613281v-.664063zm0 0" fill="#fff" fill-opacity=".392157"/><path d="m84.679421-20.514265h52.901198v21.185477h-52.901198zm0 0" fill="none" stroke="#212121" stroke-linecap="round" stroke-linejoin="round" stroke-width="3" transform="matrix(.125012 0 0 .125012 -.000001 20.923903)"/><path d="m10.585938 40.191406h6.613281v2.644532h-6.613281zm0 0" fill="url(#n)"/><path d="m10.585938 42.835938v.992187h6.613281v-.992187zm0 0" fill-opacity=".235294"/><path d="m10.585938 40.191406v.660156h6.613281v-.660156zm0 0" fill="#fff" fill-opacity=".392157"/><path d="m84.679421-20.499711h52.901198v21.15423h-52.901198zm0 0" fill="none" stroke="#212121" stroke-linecap="round" stroke-linejoin="round" stroke-width="3" transform="matrix(.125012 0 0 .125012 -.000001 42.754115)"/></svg>

<?xml version="1.0" encoding="UTF-8"?>
<svg xmlns="http://www.w3.org/2000/svg" xmlns:xlink="http://www.w3.org/1999/xlink" width="64px" height="64px" viewBox="0 0 64 64" version="1.1">
<defs>
<linearGradient id="linear0" gradientUnits="userSpaceOnUse" x1="254" y1="233.5" x2="254" y2="254.666672" gradientTransform="matrix(0.125012,0,0,0.125012,-0.00000763012,26.87757)">
<stop offset="0" style="stop-color:rgb(0%,0%,0%);stop-opacity:0.27451;"/>
<stop offset="1" style="stop-color:rgb(0%,0%,0%);stop-opacity:0;"/>
</linearGradient>
<radialGradient id="radial0" gradientUnits="userSpaceOnUse" cx="450.908936" cy="189.579361" fx="450.908936" fy="189.579361" r="21.166656" gradientTransform="matrix(0.000000348341,-0.156265,-0.281277,-0.000000203077,100.292171,127.190665)">
<stop offset="0" style="stop-color:rgb(0%,0%,0%);stop-opacity:0.313726;"/>
<stop offset="0.222222" style="stop-color:rgb(0%,0%,0%);stop-opacity:0.27451;"/>
<stop offset="1" style="stop-color:rgb(0%,0%,0%);stop-opacity:0;"/>
</radialGradient>
<radialGradient id="radial1" gradientUnits="userSpaceOnUse" cx="450.908936" cy="189.579361" fx="450.908936" fy="189.579361" r="21.166656" gradientTransform="matrix(-0.000000348341,0.156265,0.281277,0.000000203077,-36.786098,-15.054961)">
<stop offset="0" style="stop-color:rgb(0%,0%,0%);stop-opacity:0.313726;"/>
<stop offset="0.222222" style="stop-color:rgb(0%,0%,0%);stop-opacity:0.27451;"/>
<stop offset="1" style="stop-color:rgb(0%,0%,0%);stop-opacity:0;"/>
</radialGradient>
<radialGradient id="radial2" gradientUnits="userSpaceOnUse" cx="450.908936" cy="189.579361" fx="450.908936" fy="189.579361" r="21.166656" gradientTransform="matrix(-0.000000348341,-0.156265,0.281277,-0.000000203077,-36.786098,127.190665)">
<stop offset="0" style="stop-color:rgb(0%,0%,0%);stop-opacity:0.313726;"/>
<stop offset="0.222222" style="stop-color:rgb(0%,0%,0%);stop-opacity:0.27451;"/>
<stop offset="1" style="stop-color:rgb(0%,0%,0%);stop-opacity:0;"/>
</radialGradient>
<radialGradient id="radial3" gradientUnits="userSpaceOnUse" cx="450.908936" cy="189.579361" fx="450.908936" fy="189.579361" r="21.166656" gradientTransform="matrix(0.000000348341,0.156265,-0.281277,0.000000203077,100.292167,-15.054959)">
<stop offset="0" style="stop-color:rgb(0%,0%,0%);stop-opacity:0.313726;"/>
<stop offset="0.222222" style="stop-color:rgb(0%,0%,0%);stop-opacity:0.27451;"/>
<stop offset="1" style="stop-color:rgb(0%,0%,0%);stop-opacity:0;"/>
</radialGradient>
<linearGradient id="linear1" gradientUnits="userSpaceOnUse" x1="306.916656" y1="-25.791676" x2="305.954559" y2="-141.414581" gradientTransform="matrix(0.150699,0,0,0.434824,-11.708026,67.282696)">
<stop offset="0" style="stop-color:rgb(25.882354%,25.882354%,25.882354%);stop-opacity:1;"/>
<stop offset="1" style="stop-color:rgb(45.882353%,45.882353%,45.882353%);stop-opacity:1;"/>
</linearGradient>
<linearGradient id="linear2" gradientUnits="userSpaceOnUse" x1="165.484848" y1="-25.791672" x2="165.484848" y2="-141.414581" gradientTransform="matrix(4.556143,0,0,13.146184,-353.972656,2034.180176)">
<stop offset="0" style="stop-color:rgb(25.882354%,25.882354%,25.882354%);stop-opacity:1;"/>
<stop offset="1" style="stop-color:rgb(45.882353%,45.882353%,45.882353%);stop-opacity:1;"/>
</linearGradient>
<linearGradient id="linear3" gradientUnits="userSpaceOnUse" x1="1040" y1="1695.118164" x2="1040" y2="175.118118" gradientTransform="matrix(0.0330761,0,0,0.0330761,0,0)">
<stop offset="0" style="stop-color:rgb(100%,65.490198%,14.901961%);stop-opacity:1;"/>
<stop offset="1" style="stop-color:rgb(100%,71.764708%,30.19608%);stop-opacity:1;"/>
</linearGradient>
<linearGradient id="linear4" gradientUnits="userSpaceOnUse" x1="1040" y1="1695.118164" x2="1040" y2="175.118134" gradientTransform="matrix(0.264583,0,0,0.264583,-0.00000633333,-214.999756)">
<stop offset="0" style="stop-color:rgb(100%,65.490198%,14.901961%);stop-opacity:1;"/>
<stop offset="1" style="stop-color:rgb(100%,71.764708%,30.19608%);stop-opacity:1;"/>
</linearGradient>
<linearGradient id="linear5" gradientUnits="userSpaceOnUse" x1="105.833344" y1="0.666667" x2="105.833344" y2="-20.499998" gradientTransform="matrix(0.125012,0,0,0.125012,-0.000000916754,20.923903)">
<stop offset="0" style="stop-color:rgb(25.882354%,25.882354%,25.882354%);stop-opacity:1;"/>
<stop offset="1" style="stop-color:rgb(45.882353%,45.882353%,45.882353%);stop-opacity:1;"/>
</linearGradient>
<linearGradient id="linear6" gradientUnits="userSpaceOnUse" x1="105.833344" y1="0.666667" x2="105.833344" y2="-20.499998" gradientTransform="matrix(0.125012,0,0,0.125012,-0.000000916754,42.754115)">
<stop offset="0" style="stop-color:rgb(25.882354%,25.882354%,25.882354%);stop-opacity:1;"/>
<stop offset="1" style="stop-color:rgb(45.882353%,45.882353%,45.882353%);stop-opacity:1;"/>
</linearGradient>
</defs>
<g id="surface1">
<path style=" stroke:none;fill-rule:nonzero;fill:url(#linear0);" d="M 15.875 56.066406 L 47.628906 56.066406 L 47.628906 58.714844 L 15.875 58.714844 Z M 15.875 56.066406 "/>
<path style=" stroke:none;fill-rule:nonzero;fill:url(#radial0);" d="M 47.628906 56.066406 L 52.921875 56.066406 L 52.921875 53.421875 L 47.628906 53.421875 Z M 47.628906 56.066406 "/>
<path style=" stroke:none;fill-rule:nonzero;fill:url(#radial1);" d="M 15.875 56.066406 L 10.585938 56.066406 L 10.585938 58.714844 L 15.875 58.714844 Z M 15.875 56.066406 "/>
<path style=" stroke:none;fill-rule:nonzero;fill:url(#radial2);" d="M 15.875 56.066406 L 10.585938 56.066406 L 10.585938 53.421875 L 15.875 53.421875 Z M 15.875 56.066406 "/>
<path style=" stroke:none;fill-rule:nonzero;fill:url(#radial3);" d="M 47.628906 56.066406 L 52.921875 56.066406 L 52.921875 58.714844 L 47.628906 58.714844 Z M 47.628906 56.066406 "/>
<path style=" stroke:none;fill-rule:nonzero;fill:url(#linear1);" d="M 13.230469 5.792969 L 50.277344 5.792969 C 51.738281 5.792969 52.921875 6.976562 52.921875 8.4375 L 52.921875 53.421875 C 52.921875 54.882812 51.738281 56.066406 50.277344 56.066406 L 13.230469 56.066406 C 11.769531 56.066406 10.585938 54.882812 10.585938 53.421875 L 10.585938 8.4375 C 10.585938 6.976562 11.769531 5.792969 13.230469 5.792969 Z M 13.230469 5.792969 "/>
<path style="fill-rule:nonzero;fill:url(#linear2);stroke-width:11.338583;stroke-linecap:round;stroke-linejoin:miter;stroke:rgb(12.941177%,12.941177%,12.941177%);stroke-opacity:1;stroke-miterlimit:4;" d="M 400.001193 175.140764 C 355.714081 175.140764 320.048194 210.806652 320.048194 255.093763 L 320.048194 1615.121439 C 320.048194 1659.408551 355.714081 1695.074438 400.001193 1695.074438 L 519.989741 1695.074438 L 519.989741 175.140764 Z M 400.001193 175.140764 " transform="matrix(0.0330761,0,0,0.0330761,0,0)"/>
<path style=" stroke:none;fill-rule:nonzero;fill:rgb(0%,0%,0%);fill-opacity:0.196078;" d="M 13.230469 55.917969 C 11.765625 55.917969 10.585938 54.738281 10.585938 53.273438 L 10.585938 52.941406 C 10.585938 54.40625 11.765625 55.585938 13.230469 55.585938 L 50.277344 55.585938 C 51.742188 55.585938 52.921875 54.40625 52.921875 52.941406 L 52.921875 53.273438 C 52.921875 54.738281 51.742188 55.917969 50.277344 55.917969 Z M 13.230469 55.917969 "/>
<path style=" stroke:none;fill-rule:nonzero;fill:rgb(100%,100%,100%);fill-opacity:0.392157;" d="M 13.230469 5.941406 C 11.765625 5.941406 10.585938 7.121094 10.585938 8.585938 L 10.585938 8.917969 C 10.585938 7.453125 11.765625 6.269531 13.230469 6.273438 L 50.277344 6.273438 C 51.742188 6.269531 52.921875 7.453125 52.921875 8.917969 L 52.921875 8.585938 C 52.921875 7.121094 51.742188 5.941406 50.277344 5.941406 Z M 13.230469 5.941406 "/>
<path style=" stroke:none;fill-rule:nonzero;fill:rgb(12.941177%,12.941177%,12.941177%);fill-opacity:1;" d="M 13.230469 5.605469 C 11.664062 5.605469 10.398438 6.871094 10.398438 8.4375 L 10.398438 53.421875 C 10.398438 54.988281 11.664062 56.253906 13.230469 56.253906 L 50.277344 56.253906 C 51.84375 56.253906 53.109375 54.988281 53.109375 53.421875 L 53.109375 8.4375 C 53.109375 6.871094 51.84375 5.605469 50.277344 5.605469 Z M 13.230469 5.980469 L 50.277344 5.980469 C 51.640625 5.980469 52.734375 7.074219 52.734375 8.4375 L 52.734375 53.421875 C 52.734375 54.789062 51.640625 55.878906 50.277344 55.878906 L 13.230469 55.878906 C 11.863281 55.878906 10.773438 54.789062 10.773438 53.421875 L 10.773438 8.4375 C 10.773438 7.074219 11.863281 5.980469 13.230469 5.980469 Z M 13.230469 5.980469 "/>
<path style=" stroke:none;fill-rule:nonzero;fill:url(#linear3);" d="M 34.398438 12.40625 C 33.667969 12.40625 33.074219 12.996094 33.074219 13.730469 L 33.074219 21.667969 L 25.136719 21.667969 C 24.40625 21.667969 23.816406 22.257812 23.816406 22.992188 L 23.816406 24.316406 C 23.816406 25.046875 24.40625 25.636719 25.136719 25.636719 L 33.074219 25.636719 L 33.074219 41.515625 C 33.074219 42.246094 33.667969 42.835938 34.398438 42.835938 L 35.722656 42.835938 C 36.457031 42.835938 37.046875 42.246094 37.046875 41.515625 L 37.046875 25.636719 L 44.984375 25.636719 C 45.714844 25.636719 46.304688 25.046875 46.304688 24.316406 L 46.304688 22.992188 C 46.304688 22.257812 45.714844 21.667969 44.984375 21.667969 L 37.046875 21.667969 L 37.046875 13.730469 C 37.046875 12.996094 36.457031 12.40625 35.722656 12.40625 Z M 34.398438 12.40625 "/>
<path style=" stroke:none;fill-rule:nonzero;fill:rgb(100%,100%,100%);fill-opacity:0.392157;" d="M 34.398438 12.40625 C 33.667969 12.40625 33.074219 12.996094 33.074219 13.730469 L 33.074219 14.390625 C 33.074219 13.660156 33.667969 13.070312 34.398438 13.070312 L 35.722656 13.070312 C 36.457031 13.070312 37.046875 13.660156 37.046875 14.390625 L 37.046875 13.730469 C 37.046875 12.996094 36.457031 12.40625 35.722656 12.40625 Z M 25.136719 21.667969 C 24.40625 21.667969 23.816406 22.257812 23.816406 22.992188 L 23.816406 23.652344 C 23.816406 22.921875 24.40625 22.332031 25.136719 22.332031 L 33.074219 22.332031 L 33.074219 21.667969 Z M 37.046875 21.667969 L 37.046875 22.332031 L 44.984375 22.332031 C 45.714844 22.332031 46.304688 22.921875 46.304688 23.652344 L 46.304688 22.992188 C 46.304688 22.257812 45.714844 21.667969 44.984375 21.667969 Z M 37.046875 21.667969 "/>
<path style=" stroke:none;fill-rule:nonzero;fill:rgb(0%,0%,0%);fill-opacity:0.235294;" d="M 23.816406 24.316406 L 23.816406 24.976562 C 23.816406 25.710938 24.40625 26.300781 25.136719 26.300781 L 33.074219 26.300781 L 33.074219 25.636719 L 25.136719 25.636719 C 24.40625 25.636719 23.816406 25.046875 23.816406 24.316406 Z M 46.304688 24.316406 C 46.304688 25.046875 45.714844 25.636719 44.984375 25.636719 L 37.046875 25.636719 L 37.046875 26.300781 L 44.984375 26.300781 C 45.714844 26.300781 46.304688 25.710938 46.304688 24.976562 Z M 33.074219 41.515625 L 33.074219 42.175781 C 33.074219 42.910156 33.667969 43.5 34.398438 43.5 L 35.722656 43.5 C 36.457031 43.5 37.046875 42.910156 37.046875 42.175781 L 37.046875 41.515625 C 37.046875 42.246094 36.457031 42.835938 35.722656 42.835938 L 34.398438 42.835938 C 33.667969 42.835938 33.074219 42.246094 33.074219 41.515625 Z M 33.074219 41.515625 "/>
<path style="fill:none;stroke-width:11.338583;stroke-linecap:round;stroke-linejoin:round;stroke:rgb(12.941177%,12.941177%,12.941177%);stroke-opacity:1;stroke-miterlimit:4;" d="M 1039.979482 375.082311 C 1017.894975 375.082311 999.943933 392.915255 999.943933 415.11786 L 999.943933 655.094956 L 759.966837 655.094956 C 737.88233 655.094956 720.049387 672.9279 720.049387 695.130505 L 720.049387 735.166054 C 720.049387 757.250561 737.88233 775.083504 759.966837 775.083504 L 999.943933 775.083504 L 999.943933 1255.155795 C 999.943933 1277.240302 1017.894975 1295.073245 1039.979482 1295.073245 L 1080.015031 1295.073245 C 1102.217636 1295.073245 1120.05058 1277.240302 1120.05058 1255.155795 L 1120.05058 775.083504 L 1360.027676 775.083504 C 1382.112182 775.083504 1399.945126 757.250561 1399.945126 735.166054 L 1399.945126 695.130505 C 1399.945126 672.9279 1382.112182 655.094956 1360.027676 655.094956 L 1120.05058 655.094956 L 1120.05058 415.11786 C 1120.05058 392.915255 1102.217636 375.082311 1080.015031 375.082311 Z M 1039.979482 375.082311 " transform="matrix(0.0330761,0,0,0.0330761,0,0)"/>
<path style="fill:none;stroke-width:8;stroke-linecap:round;stroke-linejoin:round;stroke:url(#linear4);stroke-dasharray:16.000002,16.000002;stroke-dashoffset:7.200001;stroke-miterlimit:4;" d="M 148.17335 -147.506445 L 148.17335 212.334192 L 391.587605 212.334192 C 397.462044 212.334192 402.180344 207.615892 402.180344 201.741453 L 402.180344 -136.913707 C 402.180344 -142.788146 397.462044 -147.506445 391.587605 -147.506445 Z M 148.17335 -147.506445 " transform="matrix(0.125012,0,0,0.125012,0,26.877566)"/>
<path style=" stroke:none;fill-rule:nonzero;fill:url(#linear5);" d="M 10.585938 18.359375 L 17.199219 18.359375 L 17.199219 21.007812 L 10.585938 21.007812 Z M 10.585938 18.359375 "/>
<path style=" stroke:none;fill-rule:nonzero;fill:rgb(0%,0%,0%);fill-opacity:0.235294;" d="M 10.585938 21.007812 L 10.585938 22 L 17.199219 22 L 17.199219 21.007812 Z M 10.585938 21.007812 "/>
<path style=" stroke:none;fill-rule:nonzero;fill:rgb(100%,100%,100%);fill-opacity:0.392157;" d="M 10.585938 18.359375 L 10.585938 19.023438 L 17.199219 19.023438 L 17.199219 18.359375 Z M 10.585938 18.359375 "/>
<path style="fill:none;stroke-width:3;stroke-linecap:round;stroke-linejoin:round;stroke:rgb(12.941177%,12.941177%,12.941177%);stroke-opacity:1;stroke-miterlimit:4;" d="M 84.679421 -20.514265 L 137.580619 -20.514265 L 137.580619 0.671212 L 84.679421 0.671212 Z M 84.679421 -20.514265 " transform="matrix(0.125012,0,0,0.125012,-0.000000916754,20.923903)"/>
<path style=" stroke:none;fill-rule:nonzero;fill:url(#linear6);" d="M 10.585938 40.191406 L 17.199219 40.191406 L 17.199219 42.835938 L 10.585938 42.835938 Z M 10.585938 40.191406 "/>
<path style=" stroke:none;fill-rule:nonzero;fill:rgb(0%,0%,0%);fill-opacity:0.235294;" d="M 10.585938 42.835938 L 10.585938 43.828125 L 17.199219 43.828125 L 17.199219 42.835938 Z M 10.585938 42.835938 "/>
<path style=" stroke:none;fill-rule:nonzero;fill:rgb(100%,100%,100%);fill-opacity:0.392157;" d="M 10.585938 40.191406 L 10.585938 40.851562 L 17.199219 40.851562 L 17.199219 40.191406 Z M 10.585938 40.191406 "/>
<path style="fill:none;stroke-width:3;stroke-linecap:round;stroke-linejoin:round;stroke:rgb(12.941177%,12.941177%,12.941177%);stroke-opacity:1;stroke-miterlimit:4;" d="M 84.679421 -20.499711 L 137.580619 -20.499711 L 137.580619 0.654519 L 84.679421 0.654519 Z M 84.679421 -20.499711 " transform="matrix(0.125012,0,0,0.125012,-0.000000916754,42.754115)"/>
</g>
</svg>
